X: 17
T:Si' Beag, Si' Mo'r
M:3/4
K:D
L:1/8
de|<|f3 e d2|d3 e d2|B4 A2|F4 A2|\
BABc d2|e4 de|f4 e2|d4 f2|
B4 e2|A4 d2|F4 E2|D4 f2|\
B4 e2|A4 dc|d4 d2|d4 ::
de|f3 e d2|edef a2|b4 a2|f4 ed|\
e4 a2|f4 ed|d4 B2|B4 A2|
F4 E2|D4 f2|B4 e2|A4 fa|\
bagfed|e4 dc|d4 d2| d4 :|
